X:1
T:Title
%%score { ( 1 3 4 ) | ( 2 5 6 ) }
L:1/8
M:3/4
K:Eb
V:1 treble nm="Grand Piano"
V:3 treble 
V:4 treble 
V:2 bass 
V:5 bass 
V:6 bass 
V:1
 z2 z2[Q:1/4=94] G>G | [B,G]4[K:bass][K:treble] z2 | z G, G2 B>B | [GB]4 z2 | [GB]2 [GB]4 | %5
 [Ge]4 z2 | [DB]6 | [B,G]4[K:bass][K:treble] z2[K:bass] | [G,E]6 | c3 A [Ec]>[Ee] | [EB]6 | %11
 [EGB]3 [B,EG] [=A,EF]>[A,E] | [A,DF]6 | G3 G F>E | A6 | [DA]3 A G>F | B6 | [Ge]3 [Ac] [GB]>[Gc] | %18
 [EG]4 [EB]2 | %19
 B2- [CB-]2 [DB]>D[Q:1/4=92][Q:1/4=90][Q:1/4=88][Q:1/4=86][Q:1/4=84][Q:1/4=82][Q:1/4=80][Q:1/4=78][Q:1/4=76][Q:1/4=74][Q:1/4=72] | %20
[M:2/4] E4 |] %21
V:2
 z2 z2 B,>B, | z B,, z B, A,>A, | z [B,,E,] [B,,E,G,B,]2[K:treble] G>G | z E, z[K:treble] G F>E | %4
 z E, [E,G,B,]2 E,2 | z E, z[K:treble] G G>E | z F, F,2 F,2 | z B,, z B, A,>A, | z B,, B,,2 E,,2 | %9
 [A,E]3 [A,CE] [A,,A,]>[C,A,] | [E,G,]6 | E,3 E, C,>C, | B,,6 | [E,B,E]3 [G,B,E] [A,B,D]>[G,B,] | %14
 [F,B,D]6 | [B,,F,]3 [F,B,D] [B,D]>[A,B,D] | [G,B,E]6 | [E,B,]3 [E,E] [E,E]>[E,E] | %18
 [E,B,]4 [E,G,]2 | G,2 E,2 F,>[B,,A,B,] |[M:2/4] [E,G,B,]4 |] %21
V:3
 x6 | z[K:bass] [E,G,] z[K:treble] G F>E | [B,G]2 z2 z2 | z [G,B,] z B A>G | z [G,B,] z2 [G,B,]2 | %5
 z [G,B,] z e B>G | z [A,B,] [A,B,]2 [A,B,]2 | z[K:bass] E, z[K:treble] G F>[K:bass]B, | %8
 z E, E,2 E,2 | x6 | x6 | x6 | x6 | x6 | x6 | x6 | x6 | x6 | x6 | E2 z2 z2 |[M:2/4] x4 |] %21
V:4
 x6 | z2[K:bass] [E,G,]2[K:treble] z2 | x6 | z2 [G,B,]2 z2 | x6 | z2 [G,B,]2 z2 | x6 | %7
 z2[K:bass] E,2[K:treble] z2[K:bass] | x6 | x6 | x6 | x6 | x6 | x6 | x6 | x6 | x6 | x6 | x6 | x6 | %20
[M:2/4] x4 |] %21
V:5
 x6 | z2 B,,2 z2 | E,,4[K:treble] z2 | z2 E,2[K:treble] z2 | E,,6 | z2 E,2[K:treble] z2 | B,,,6 | %7
 z2 B,,2 z2 | E,,4 z2 | x6 | x6 | x6 | x6 | x6 | x6 | x6 | x6 | x6 | x6 | B,,6 |[M:2/4] x4 |] %21
V:6
 x6 | E,,4 z2 | x4[K:treble] x2 | E,,4[K:treble] z2 | x6 | E,,4[K:treble] z2 | x6 | B,,,4 z2 | x6 | %9
 x6 | x6 | x6 | x6 | x6 | x6 | x6 | x6 | x6 | x6 | x6 |[M:2/4] x4 |] %21

